public/svg/icons/lunch.svg

<svg width="103" height="70" viewBox="0 0 103 70" fill="none" xmlns="http://www.w3.org/2000/svg">
<circle cx="29.7211" cy="29.7211" r="26.7211" fill="#F55E21" stroke="#DA3E0D" stroke-width="5"/>
<path fill-rule="evenodd" clip-rule="evenodd" d="M38.1224 59.4692C33.5866 59.1707 30 55.397 30 50.7856C30 45.9793 33.8963 42.0831 38.7026 42.0831C40.6665 42.0831 42.4785 42.7336 43.9348 43.8309C44.2359 35.7655 50.8695 29.3193 59.0086 29.3193C64.8465 29.3193 69.9099 32.6357 72.4175 37.4873C73.9709 36.7154 75.7218 36.2814 77.5741 36.2814C83.9825 36.2814 89.1775 41.4764 89.1775 47.8848C89.1775 53.9016 84.598 58.8488 78.7345 59.431V59.4884H38.1224V59.4692Z" fill="white"/>
<path d="M38.1224 59.4692H40.6224C40.6224 58.1522 39.6007 57.0611 38.2866 56.9746L38.1224 59.4692ZM43.9348 43.8309L42.4303 45.8276C43.174 46.3879 44.1674 46.4886 45.0084 46.0887C45.8493 45.6888 46.3983 44.8547 46.433 43.9242L43.9348 43.8309ZM72.4175 37.4873L70.1966 38.6352C70.8234 39.848 72.3073 40.3336 73.5299 39.7261L72.4175 37.4873ZM78.7345 59.431L78.4875 56.9432C77.2087 57.0702 76.2345 58.1459 76.2345 59.431H78.7345ZM78.7345 59.4884V61.9884C80.1152 61.9884 81.2345 60.8691 81.2345 59.4884H78.7345ZM38.1224 59.4884H35.6224C35.6224 60.8691 36.7417 61.9884 38.1224 61.9884V59.4884ZM38.2866 56.9746C35.0562 56.762 32.5 54.0713 32.5 50.7856H27.5C27.5 56.7227 32.117 61.5793 37.9582 61.9638L38.2866 56.9746ZM32.5 50.7856C32.5 47.3601 35.277 44.5831 38.7026 44.5831V39.5831C32.5156 39.5831 27.5 44.5986 27.5 50.7856H32.5ZM38.7026 44.5831C40.1052 44.5831 41.3925 45.0456 42.4303 45.8276L45.4393 41.8343C43.5644 40.4216 41.2278 39.5831 38.7026 39.5831V44.5831ZM46.433 43.9242C46.6842 37.1972 52.2189 31.8193 59.0086 31.8193V26.8193C49.52 26.8193 41.7876 34.3338 41.4365 43.7377L46.433 43.9242ZM59.0086 31.8193C63.8754 31.8193 68.1013 34.5814 70.1966 38.6352L74.6383 36.3394C71.7184 30.69 65.8176 26.8193 59.0086 26.8193V31.8193ZM73.5299 39.7261C74.7454 39.1222 76.1163 38.7814 77.5741 38.7814V33.7814C75.3272 33.7814 73.1963 34.3086 71.305 35.2485L73.5299 39.7261ZM77.5741 38.7814C82.6018 38.7814 86.6775 42.8571 86.6775 47.8848H91.6775C91.6775 40.0957 85.3632 33.7814 77.5741 33.7814V38.7814ZM86.6775 47.8848C86.6775 52.6038 83.085 56.4867 78.4875 56.9432L78.9815 61.9187C86.111 61.2108 91.6775 55.1994 91.6775 47.8848H86.6775ZM76.2345 59.431V59.4884H81.2345V59.431H76.2345ZM78.7345 56.9884H38.1224V61.9884H78.7345V56.9884ZM40.6224 59.4884V59.4692H35.6224V59.4884H40.6224Z" fill="#E9EFE8"/>
<path fill-rule="evenodd" clip-rule="evenodd" d="M91.3408 59.4884H77.5493H62.4648H62.0338V59.4742C58.6643 59.2525 56 56.4492 56 53.0236C56 49.4532 58.8944 46.5588 62.4648 46.5588C63.9237 46.5588 65.2697 47.0421 66.3516 47.8573C66.5752 41.8657 71.503 37.0771 77.5493 37.0771C81.886 37.0771 85.6474 39.5407 87.5101 43.1448C88.6641 42.5714 89.9648 42.249 91.3408 42.249C96.1013 42.249 99.9605 46.1081 99.9605 50.8687C99.9605 55.3383 96.5586 59.0133 92.2027 59.4458V59.4884H91.3408Z" fill="white"/>
<path d="M62.0338 59.4884H59.5338C59.5338 60.8691 60.6531 61.9884 62.0338 61.9884V59.4884ZM62.0338 59.4742H64.5338C64.5338 58.1573 63.5121 57.0661 62.198 56.9796L62.0338 59.4742ZM66.3516 47.8573L64.8471 49.8539C65.5907 50.4143 66.5842 50.5149 67.4252 50.115C68.2661 49.7151 68.8151 48.881 68.8498 47.9505L66.3516 47.8573ZM87.5101 43.1448L85.2893 44.2927C85.9161 45.5055 87.4 45.9911 88.6226 45.3836L87.5101 43.1448ZM92.2027 59.4458L91.9557 56.958C90.677 57.085 89.7027 58.1608 89.7027 59.4458H92.2027ZM92.2027 59.4884V61.9884C93.5835 61.9884 94.7027 60.8691 94.7027 59.4884H92.2027ZM91.3408 56.9884H77.5493V61.9884H91.3408V56.9884ZM77.5493 56.9884H62.4648V61.9884H77.5493V56.9884ZM62.4648 56.9884H62.0338V61.9884H62.4648V56.9884ZM64.5338 59.4884V59.4742H59.5338V59.4884H64.5338ZM62.198 56.9796C60.1339 56.8438 58.5 55.1235 58.5 53.0236H53.5C53.5 57.7749 57.1947 61.6611 61.8696 61.9688L62.198 56.9796ZM58.5 53.0236C58.5 50.8339 60.2751 49.0588 62.4648 49.0588V44.0588C57.5137 44.0588 53.5 48.0725 53.5 53.0236H58.5ZM62.4648 49.0588C63.3624 49.0588 64.1838 49.3541 64.8471 49.8539L67.8561 45.8607C66.3557 44.7301 64.485 44.0588 62.4648 44.0588V49.0588ZM68.8498 47.9505C69.0235 43.2974 72.8525 39.5771 77.5493 39.5771V34.5771C70.1536 34.5771 64.127 40.4341 63.8533 47.764L68.8498 47.9505ZM77.5493 39.5771C80.9149 39.5771 83.8388 41.4865 85.2893 44.2927L89.731 41.9969C87.4559 37.595 82.8571 34.5771 77.5493 34.5771V39.5771ZM88.6226 45.3836C89.4386 44.9781 90.3594 44.749 91.3408 44.749V39.749C89.5702 39.749 87.8896 40.1646 86.3977 40.9059L88.6226 45.3836ZM91.3408 44.749C94.7206 44.749 97.4605 47.4889 97.4605 50.8687H102.46C102.46 44.7274 97.482 39.749 91.3408 39.749V44.749ZM97.4605 50.8687C97.4605 54.0404 95.0456 56.6513 91.9557 56.958L92.4497 61.9336C98.0716 61.3754 102.46 56.6361 102.46 50.8687H97.4605ZM89.7027 59.4458V59.4884H94.7027V59.4458H89.7027ZM92.2027 56.9884H91.3408V61.9884H92.2027V56.9884Z" fill="#E9EFE8"/>
<path d="M49 67.3193H81.3239" stroke="#434343" stroke-width="5" stroke-linecap="round"/>
<path d="M75.1396 13.3193C78.2021 15.6923 79.2128 17.3646 79.4486 21.1093C82.1537 18.5573 84.1823 17.9506 88.0368 18.7658" stroke="#A4BA04" stroke-width="5" stroke-linecap="round" stroke-linejoin="round"/>
</svg>

<svg width="103" height="70" fill="none" xmlns="http://www.w3.org/2000/svg"><circle cx="29.721" cy="29.721" r="26.721" fill="#F55E21" stroke="#DA3E0D" stroke-width="5"/><path fill-rule="evenodd" clip-rule="evenodd" d="M38.122 59.47a8.703 8.703 0 115.813-15.64c.3-8.064 6.934-14.51 15.074-14.51 5.838 0 10.9 3.316 13.409 8.167a11.555 11.555 0 015.156-1.206c6.409 0 11.603 5.195 11.603 11.604 0 6.017-4.579 10.964-10.443 11.546v.057H38.122v-.019z" fill="#fff"/><path d="M38.122 59.47h2.5a2.5 2.5 0 00-2.335-2.495l-.165 2.494zm5.813-15.64l-1.505 1.998a2.5 2.5 0 004.003-1.904l-2.498-.093zm28.483-6.343l-2.221 1.148a2.5 2.5 0 003.333 1.091l-1.112-2.239zm6.316 21.944l-.246-2.488a2.5 2.5 0 00-2.254 2.488h2.5zm0 .057v2.5a2.5 2.5 0 002.5-2.5h-2.5zm-40.612 0h-2.5a2.5 2.5 0 002.5 2.5v-2.5zm.165-2.513a6.203 6.203 0 01-5.787-6.19h-5c0 5.938 4.617 10.794 10.458 11.179l.329-4.99zm-5.787-6.19a6.203 6.203 0 016.203-6.202v-5c-6.187 0-11.203 5.016-11.203 11.203h5zm6.203-6.202c1.402 0 2.69.463 3.727 1.245l3.01-3.994a11.165 11.165 0 00-6.737-2.25v5zm7.73-.659c.251-6.727 5.786-12.105 12.576-12.105v-5c-9.489 0-17.221 7.515-17.572 16.919l4.996.186zM59.009 31.82c4.866 0 9.092 2.762 11.188 6.816l4.441-2.296c-2.92-5.649-8.82-9.52-15.63-9.52v5zm14.52 7.907a9.057 9.057 0 014.045-.945v-5c-2.247 0-4.378.528-6.269 1.468l2.225 4.477zm4.045-.945a9.103 9.103 0 019.103 9.104h5c0-7.79-6.314-14.104-14.103-14.104v5zm9.103 9.104a9.105 9.105 0 01-8.19 9.058l.495 4.976c7.129-.708 12.695-6.72 12.695-14.034h-5zM76.234 59.43v.057h5v-.057h-5zm2.5-2.443H38.122v5h40.612v-5zm-38.112 2.5v-.019h-5v.02h5z" fill="#E9EFE8"/><path fill-rule="evenodd" clip-rule="evenodd" d="M91.34 59.488H62.035v-.014a6.465 6.465 0 114.318-11.617c.223-5.991 5.151-10.78 11.197-10.78 4.337 0 8.098 2.464 9.961 6.068a8.62 8.62 0 114.693 16.301v.042h-.862z" fill="#fff"/><path d="M62.034 59.488h-2.5a2.5 2.5 0 002.5 2.5v-2.5zm0-.014h2.5a2.5 2.5 0 00-2.336-2.494l-.164 2.494zm4.318-11.617l-1.505 1.997a2.5 2.5 0 004.003-1.904l-2.498-.093zm21.158-4.712l-2.22 1.148a2.5 2.5 0 003.333 1.09l-1.113-2.238zm4.693 16.3l-.247-2.487a2.5 2.5 0 00-2.253 2.488h2.5zm0 .043v2.5a2.5 2.5 0 002.5-2.5h-2.5zm-.862-2.5H77.549v5h13.792v-5zm-13.792 0H62.465v5h15.084v-5zm-15.084 0h-.431v5h.43v-5zm2.069 2.5v-.014h-5v.014h5zm-2.336-2.508a3.965 3.965 0 01-3.698-3.956h-5a8.965 8.965 0 008.37 8.945l.328-4.99zM58.5 53.024a3.965 3.965 0 013.965-3.965v-5a8.965 8.965 0 00-8.965 8.965h5zm3.965-3.965c.897 0 1.719.295 2.382.795l3.01-3.993a8.936 8.936 0 00-5.392-1.802v5zm6.385-1.108a8.706 8.706 0 018.7-8.374v-5c-7.396 0-13.423 5.857-13.697 13.187l4.997.186zm8.7-8.374a8.707 8.707 0 017.74 4.716l4.441-2.296c-2.275-4.402-6.874-7.42-12.182-7.42v5zm11.073 5.807a6.084 6.084 0 012.718-.635v-5c-1.77 0-3.451.416-4.943 1.157l2.225 4.478zm2.718-.635a6.12 6.12 0 016.12 6.12h4.999c0-6.142-4.978-11.12-11.12-11.12v5zm6.12 6.12a6.12 6.12 0 01-5.505 6.089l.494 4.976c5.622-.559 10.01-5.298 10.01-11.065h-5zm-7.758 8.577v.042h5v-.042h-5zm2.5-2.458h-.862v5h.862v-5z" fill="#E9EFE8"/><path d="M49 67.32h32.324" stroke="#434343" stroke-width="5" stroke-linecap="round"/><path d="M75.14 13.32c3.062 2.372 4.073 4.045 4.309 7.79 2.705-2.553 4.733-3.16 8.588-2.344" stroke="#A4BA04" stroke-width="5" stroke-linecap="round" stroke-linejoin="round"/></svg>
